!!!COM: Haydn, Franz Joseph
!!!OTL: String Quartet in D Major
!!!OPS: Opus 71
!!!ONM: No. 2
!!!OMD: Adagio cantabile
!!!OMV: 2
!!!SCT: H III:70
!!!SCA: Thematisch-bibliographisches Werkevererzeichnis (A. van Hoboken)
!!!YOR: Trautwein Edition
!!!ENC: Frances Bennion
!!!CDT: 1732/3/31/-1809/5/31/
!!!CNT: Oesterreich
!!!YEC: Copyright (c) 1994, 2000 Center for Computer Assisted Research in the Humanities
!!!YEM: Rights to all derivative editions reserved.
!!!YEM: Refer to licensing agreement for further details.
!!!YEN: United States of America
**kern	**kern	**kern	**kern
*k[f#c#g#]	*k[f#c#g#]	*k[f#c#g#]	*k[f#c#g#]
*A:	*A:	*A:	*A:
*clefF4	*clefC3	*clefF	*clefF
*M3/4	*M3/4	*M3/4	*M3/4
[2.AA	2.E	2.c#	4e
.	.	.	4a
.	.	.	4cc#
=2	=2	=2	=2
2.AA_	2.F#	[2.d	4f#
.	.	.	4b
.	.	.	4dd
=3	=3	=3	=3
4AA]	4B	4d]	4g#
[2AA	2d	2g# 2B	4ee
.	.	.	8ff#
.	.	.	8dd
=4	=4	=4	=4
4AA]	4e	8cc#	8cc#
.	.	8d	8b
16.r	2r	8c#	8a
32AA	.	.	.
16.C#	.	4r	4r
32E	.	.	.
8A	.	.	.
8r	.	8a	8cc#
=5	=5	=5	=5
2.r	[3e	16.b	16.dd
.	.	32cc#	32ee
.	.	16.a	16.cc#
.	.	32b	32dd
.	.	8g#	8b
.	96e]	.	.
.	32f#	.	.
.	16.d	4r	4r
.	32e	.	.
.	16.c#	.	.
.	32d	.	.
.	16.B	8b	8dd
.	32c#	.	.
=6	=6	=6	=6
2r	2A	2cc# 2e	16.ee
.	.	.	32ff#
.	.	.	16.gg#
.	.	.	32aa
.	.	.	8.ee
.	.	.	16ccc#
8C#	8E	8A	16.bb
.	.	.	32aa
8D	8F#	8B	16.gg#
.	.	.	32ff#
=7	=7	=7	=7
2E	4A	4c#	6..ee
.	2G#	2d	.
.	.	.	24ff#
.	.	.	24dd
.	.	.	24cc#
.	.	.	24b
.	.	.	24a
4EE	.	.	24g#
.	.	.	24f#
.	.	.	24e
.	.	.	24d
.	.	.	24c#
.	.	.	24B
=8	=8	=8	=8
4AA	16A	16c#	4A
.	16E	8.e	.
.	16c#	.	.
.	16E	.	.
2r	16A	4c#	4r
.	16E	.	.
.	16c#	.	.
.	16E	.	.
.	16A	4A	4a
.	16E	.	.
.	16c#	.	.
.	16E	.	.
=9	=9	=9	=9
[2.AA	16A	2f#	2dd
.	16F#	.	.
.	16d	.	.
.	16F#	.	.
.	16A	.	.
.	16F#	.	.
.	16d	.	.
.	16F#	.	.
.	16A	4d	8.ff#
.	16G#	.	.
.	16B	.	.
.	16G#	.	16ee
=10	=10	=10	=10
4AA]	16A	4c#	4ee
.	16E	.	.
.	16c#	.	.
.	16E	.	.
2r	16A	4r	4cc#
.	16E	.	.
.	16c#	.	.
.	16E	.	.
.	16A	4c#	4a
.	16E	.	.
.	16c#	.	.
.	16E	.	.
=11	=11	=11	=11
[2.AA	16A	2f#	2dd
.	16F#	.	.
.	16d	.	.
.	16F#	.	.
.	16A	.	.
.	16F#	.	.
.	16d	.	.
.	16F#	.	.
.	16A	4d	8.ff
.	16G#	.	.
.	16B	.	.
.	16G#	.	16ee
=12	=12	=12	=12
2.AA]	16A	2c#	2.ee
.	16E	.	.
.	16c#	.	.
.	16E	.	.
.	16A	.	.
.	16E	.	.
.	16c#	.	.
.	16E	.	.
.	16A	4cc#	.
.	16E	.	.
.	16c#	.	.
.	16A	.	.
=13	=13	=13	=13
[2.C#	16G#	8b	2.ee#
.	16B	.	.
.	16c#	8g#	.
.	16B	.	.
.	16G#	8e#	.
.	16B	.	.
.	16d	8g#	.
.	16B	.	.
.	16c#	8a	.
.	16A	.	.
.	16G#	16b	.
.	16B	16g#	.
=14	=14	=14	=14
2C#]	16A	2.a	2ff#
.	16f#	.	.
.	16a	.	.
.	16f#	.	.
.	16A	.	.
.	16c#	.	.
.	16a	.	.
.	16c#	.	.
4C	16A	.	4ee
.	16e	.	.
.	16a	.	.
.	16e	.	.
=15	=15	=15	=15
2.BB	16A	4f#	4dd#
.	16f#	.	.
.	16a	.	.
.	16f#	.	.
.	16B	4g#	4ee
.	16e	.	.
.	16g#	.	.
.	16e	.	.
.	16G	4c#	8.a#
.	16e	.	.
.	16g	.	.
.	16e	.	16b
=16	=16	=16	=16
16r	4d#	4B	4b
16BB	.	.	.
16E	.	.	.
16D#	.	.	.
16G#	2r	2r	2r
16F#	.	.	.
16B	.	.	.
16A#	.	.	.
16c#	.	.	.
16B	.	.	.
16A	.	.	.
16F#	.	.	.
=17	=17	=17	=17
2.r	8r	8r	4b
.	8e	8g#	.
.	8r	8r	4ee
.	8e	8g#	.
.	8r	8r	4gg#
.	8e	8g#	.
=18	=18	=18	=18
4E	8r	8r	8.cc#
.	8e	8a	.
.	.	.	16cc#
2r	8r	8r	4ff#
.	8e	8cc# 8a	.
.	8r	8r	8.aa
.	8e	8cc# 8a	.
.	.	.	48gg#
.	.	.	48ff#
.	.	.	48ee
=19	=19	=19	=19
4BB	16r	8r	8dd#
.	16b	.	.
.	16a	8d#	8bb
.	16f#	.	.
4F#	16e	8r	4.bb
.	16d#	.	.
.	16a	8d#	.
.	16f#	.	.
4A	16e	8r	.
.	16d#	.	.
.	16c#	8f#	16ccc#
.	16B	.	16ddd#
=20	=20	=20	=20
4G#	16r	8r	8eee
.	16e	.	.
.	16B	8e	8bb
.	16A	.	.
4B	16G#	8r	4.bb
.	16A	.	.
.	16G#	8e	.
.	16F#	.	.
4e	16E	8r	.
.	16G#	.	.
.	16B	16e	8ggg#
.	16e	16r	.
=21	=21	=21	=21
4BB	8d#	16r	8aaa
.	.	16dd#	.
.	8d#	16ff#	8fff#
.	.	16gg#	.
4F#	8r	16aa	2ddd#
.	.	16bb	.
.	8B	16aa	.
.	.	16gg#	.
4A	8r	16ff#	.
.	.	16ee	.
.	8B	16dd#	.
.	.	16ff#	.
=22	=22	=22	=22
4G#	8r	16r	8eee
.	.	16b	.
.	8E	16ee	8bb
.	.	16ff#	.
4B	8r	16gg#	[6..bb
.	.	16aa	.
.	8E	16gg#	.
.	.	16ff#	.
4e	8r	16ee	.
.	.	.	48bb]
.	.	16b	16eee
.	8E	16g#	16ggg#
.	.	16b	16eee
=23	=23	=23	=23
4BB	16r	8d#	8aaa
.	16d#	.	.
.	16f#	8d#	8fff#
.	16g#	.	.
4F#	16a	8r	2ddd#
.	16b	.	.
.	16a	8B	.
.	16g#	.	.
4A	16f#	8r	.
.	16e	.	.
.	16d#	8B	.
.	16f#	.	.
=24	=24	=24	=24
16G	16B	16e	[3..eee
16E	16G	16g	.
16G	16B	16e	.
16E	16G	16g	.
16G	16B	16e	.
16E	16G	16g	.
16G	16B	16e	.
16E	16G	16g	.
16G	16B	16e	.
16E	16G	16g	.
.	.	.	24eee]
16G	16B	16e	8ee
16E	16G	16g	.
=25	=25	=25	=25
16C	16c	16e	[3..gg
16E	16G	16g	.
16C	16c	16e	.
16E	16G	16g	.
16C	16c	16e	.
16E	16G	16g	.
16C	16c	16e	.
16E	16G	16g	.
16C	16c	16e	.
16E	16G	16g	.
.	.	.	24gg]
16C	16c	16e	8cc
16E	16G	16g	.
=26	=26	=26	=26
16AA	16c	16f	2ff
16AA	16c	16f	.
16AA	16c	16f	.
16AA	16c	16f	.
16AA	16c	16f	.
16AA	16c	16f	.
16AA	16c	16f	.
16AA	16c	16f	.
16AA#	16c#	16g	4ee
16AA#	16c#	16g	.
16AA#	16c#	16g	.
16AA#	16c#	16g	.
=27	=27	=27	=27
16BB	2e	4.g#	4.b
16E	.	.	.
16G#	.	.	.
16E	.	.	.
4.B	.	.	.
.	.	8g	8a#
.	8d#	4f#	8a
8BB	8A	.	8d#
=28	=28	=28	=28
4E	4G#	4e	8e
.	.	.	8g#
2r	2r	2r	8b
.	.	.	16aa
.	.	.	16gg#
.	.	.	16ff#
.	.	.	16ee
.	.	.	16dd#
.	.	.	16cc#
=29	=29	=29	=29
16r	2e	4.g#	4.b
16BB	.	.	.
16C#	.	.	.
16D#	.	.	.
16E	.	.	.
16F#	.	.	.
16G	.	8g	8a#
16E	.	.	.
8B	8d#	4f#	8a
8BB	8A	.	8d#
=30	=30	=30	=30
4E	4G#	4e	16e
.	.	.	16g#
.	.	.	16b
.	.	.	16dd#
2r	2r	2r	16ff#
.	.	.	16ee
.	.	.	16aa
.	.	.	16gg#
.	.	.	16ff#
.	.	.	16ee
.	.	.	16dd#
.	.	.	16cc#
=31	=31	=31	=31
16r	2e	4.g#	4.b
16BB	.	.	.
16C#	.	.	.
16D#	.	.	.
16E	.	.	.
16F#	.	.	.
16G	.	8g	8a#
16E	.	.	.
8B	8d#	4f#	8a
8BB	8A	.	8d#
=32	=32	=32	=32
[2.E	16G#	16e	4e
.	16B	16d	.
.	16A	16c#	.
.	16G#	16B	.
.	16A	4c#	4a
.	16B	.	.
.	16c#	.	.
.	16d#	.	.
.	16e	4B	4g#
.	16d#	.	.
.	16c#	.	.
.	16B	.	.
=33	=33	=33	=33
2.E]	2.A	2.d#	16f#
.	.	.	16g#
.	.	.	16a
.	.	.	16a#
.	.	.	16b
.	.	.	16b#
.	.	.	16dd#
.	.	.	16cc#
.	.	.	16b
.	.	.	16a
.	.	.	16g#
.	.	.	16f#
=34	=34	=34	=34
16r	8G#	8e	8e
16C#	.	.	.
16BB	8r	8r	8r
16AA	.	.	.
16GG#	8G#	8B	8e
16AA	.	.	.
16GG#	8r	8r	8r
16FF#	.	.	.
16EE	8G#	8B	8e
16DD#	.	.	.
16EE	8r	8r	8r
16DD#	.	.	.
=35	=35	=35	=35
2EE	2.G#	2.B	2.e
4DD	.	.	.
=36	=36	=36	=36
8CC	8G	8c	4G 4e
8CC	8C	8G 8e	.
8CC	8E	8e 8G	4g
8CC	8G	8e 8G	.
8CC	8E	8e 8G	4cc 4e
8CC	8C	8G 8e	.
=37	=37	=37	=37
8CC 8C	8B 8d	8f 8G	4d 4b
8C 8CC	8d 8B	8f 8G	.
8CC 8C	8B 8d	8G 8f	4dd
8C 8CC	8B 8d	8f 8G	.
8C 8CC	8G 8d	8b 8d	4ff
8C 8CC	8d 8G	8b 8d	.
=38	=38	=38	=38
8CC	8e 8G	2cc 2e	4ee 4cc
8c	8e 8G	.	.
8c	8e 8G	.	4gg
8c	8G 8e	.	.
8c	8g	4ee	4ccc
8c	8g	.	.
=39	=39	=39	=39
4c	8f	4ff	4aa
.	8a	.	.
16.r	8cc	4ee	4gg
32C	.	.	.
16.E	4.r	.	.
32G	.	.	.
8c	.	8r	8r
8r	.	8cc	8ee
=40	=40	=40	=40
2.r	[3g	16.dd	16.ff
.	.	32ee	32gg
.	.	16.cc	16.ee
.	.	32dd	32ff
.	.	8b	8dd
.	96g]	.	.
.	32a	.	.
.	16.f	4r	4r
.	32g	.	.
.	16.e	.	.
.	32f	.	.
.	16.d	8dd	8ff
.	32e	.	.
=41	=41	=41	=41
4r	4c	4ee	16.gg
.	.	.	32aa
.	.	.	16.bb
.	.	.	32ccc
4c	8r	8r	4.gg
.	8c	8e	.
4B-	8B-	8d	.
.	8B-	8d	8gg#
=42	=42	=42	=42
4A	16.A	16.c#	[2.aa
.	32B	32d	.
.	16.c#	16.e	.
.	32d	32f#	.
2r	8e	8g	.
.	8d	8f#	.
.	8e	8g	.
.	8c#	8e	.
=43	=43	=43	=43
4r	4d	4e#	16aa]
.	.	.	16bb
.	.	.	16ccc#
.	.	.	16ddd
4d	8r	8r	8aa
.	8d	8f	8aa
4c	8c	8e	8r
.	8c	8e	8aa
=44	=44	=44	=44
4B	16.B	16.d#	[3..aa
.	32c#	32e	.
.	16.d#	16.f#	.
.	32e	32g	.
4r	8f#	8a	.
.	8e	8g	.
4B	8f#	8a	.
.	.	.	96aa]
.	.	.	32ccc
.	8d#	8f#	16.bb
.	.	.	32aa
=45	=45	=45	=45
8E	8e	8e	16.gg#
.	.	.	32aa
8E	8G#	8B 8d	16.bb
.	.	.	32ccc
8E	8G#	8d 8B	16.ddd
.	.	.	32ccc
8E	8G#	8B 8d	16.bb
.	.	.	32aa
8E	8G#	8d 8B	16.gg#
.	.	.	32ff
8E	8G#	8B 8d	16.ee
.	.	.	32dd
=46	=46	=46	=46
8E	8A	8c	16.cc
.	.	.	32b
8E	8A	8c	16.a
.	.	.	32g#
8E	8A	8c	16.a
.	.	.	32e
8E	8A	8c	16.c
.	.	.	32B
8E	8c	8d#	16.A
.	.	.	32c
8E	8c	8d#	16.B
.	.	.	32A
=47	=47	=47	=47
4E	4B	4e	16G#
.	.	.	16B
.	.	.	16e
.	.	.	16d#
2r	2r	2r	16f#
.	.	.	16e
.	.	.	16g#
.	.	.	16f#
.	.	.	16a
.	.	.	16g#
.	.	.	16b
.	.	.	16a
=48	=48	=48	=48
2G#	2e 2B	2d	16cc#
.	.	.	16b
.	.	.	16dd
.	.	.	16cc#
.	.	.	16ee
.	.	.	16dd
.	.	.	16cc#
.	.	.	16b
4r	4r	4r	16a
.	.	.	16g#
.	.	.	16f#
.	.	.	16e
=49	=49	=49	=49
8r	8r	8r	16d#
.	.	.	16e
8A	8e	8c#	8r
8r	8r	8r	16g#
.	.	.	16a
8A	8c#	8e	8r
8r	8r	8r	16b#
.	.	.	16cc#
8A	8c#	8e	8r
=50	=50	=50	=50
8r	8r	8r	24e#
.	.	.	24g#
.	.	.	24f#
8A	8d	8f#	8r
8r	8r	8r	24a#
.	.	.	24cc#
.	.	.	24b
8A	8d	8f#	8r
8r	8r	8r	24cc#
.	.	.	24ee
.	.	.	24dd
8A	8d	8f#	8r
=51	=51	=51	=51
8r	8r	8r	24G#
.	.	.	24B
.	.	.	24d
[3..G#	[3..d	[3..e	24e
.	.	.	24g#
.	.	.	24b
.	.	.	24dd
.	.	.	24ee
.	.	.	24gg#
.	.	.	24bb
.	.	.	24ddd
.	.	.	24ccc#
.	.	.	24bb
.	.	.	24aa
.	.	.	24gg#
.	.	.	24ff#
.	.	.	24ee
24G#]	24d]	24e] 24B	24dd
=52	=52	=52	=52
4A	4c#	4c# 4e	24cc#
.	.	.	24dd
.	.	.	24ee
.	.	.	24dd
.	.	.	24cc#
.	.	.	24b
2r	2r	2r	8a
.	.	.	8b
.	.	.	8cc
.	.	.	8cc#
=53	=53	=53	=53
4B	4d	4g#	24dd
.	.	.	24ee
.	.	.	24ff#
.	.	.	24ee
.	.	.	24dd
.	.	.	24cc#
2r	2r	2r	8b
.	.	.	8cc#
.	.	.	8dd
.	.	.	8dd#
=54	=54	=54	=54
4C#	4E	4A	24ee
.	.	.	24ff#
.	.	.	24gg#
.	.	.	24aa
.	.	.	24bb
.	.	.	24ccc#
4r	4r	4r	24ddd
.	.	.	24ccc#
.	.	.	24bb
.	.	.	24aa
.	.	.	24gg#
.	.	.	24ff#
4D	4F#	4B	24ee
.	.	.	24dd
.	.	.	24cc#
.	.	.	24b
.	.	.	24a
.	.	.	24g#
=55	=55	=55	=55
4E	4A	4c#	24f#
.	.	.	24e
.	.	.	24d
.	.	.	24c#
.	.	.	24B
.	.	.	24A
4r	4r	4r	24G#
.	.	.	24A
.	.	.	24B
.	.	.	24c#
.	.	.	24d
.	.	.	24e
4E	4d	4d	24f#
.	.	.	24g#
.	.	.	24a
.	.	.	24b
.	.	.	24dd
.	.	.	24g#
=56	=56	=56	=56
2.GG	2.e 2.A	24c#	2a
.	.	24d	.
.	.	24e	.
.	.	24d	.
.	.	24c#	.
.	.	24B	.
.	.	24A	.
.	.	24c#	.
.	.	24e	.
.	.	24d	.
.	.	24c#	.
.	.	24B	.
.	.	24A	4cc#
.	.	24c#	.
.	.	24e	.
.	.	24d	.
.	.	24c#	.
.	.	24B	.
=57	=57	=57	=57
2FF	4d	24A	2dd
.	.	24d	.
.	.	24f	.
.	.	24a	.
.	.	24f	.
.	.	24d	.
.	4f	24A	.
.	.	24d	.
.	.	24f	.
.	.	24a	.
.	.	24f	.
.	.	24d	.
4EE	4g	24A	8.ee
.	.	24c#	.
.	.	24e	.
.	.	24a	.
.	.	24e	.
.	.	.	32dd
.	.	24c#	.
.	.	.	32ee
=58	=58	=58	=58
4DD	4f	24A	4ff
.	.	24d	.
.	.	24f	.
.	.	24a	.
.	.	24f	.
.	.	24d	.
2DD#	2F#	24A	4..a
.	.	24c	.
.	.	24B	.
.	.	24A	.
.	.	24B	.
.	.	24c	.
.	.	24A	.
.	.	24c	.
.	.	24B	.
.	.	24A	.
.	.	24B	.
.	.	.	32g#
.	.	24c	.
.	.	.	32a
=59	=59	=59	=59
4E	4E	4B	8g#
.	.	.	8ee
4B	4g#	24r	4.ee
.	.	24ddd	.
.	.	24bb	.
.	.	24aa	.
.	.	24gg#	.
.	.	24ff#	.
4d	4b	24ee	.
.	.	24dd	.
.	.	24cc#	.
.	.	24b	16ff#
.	.	24a	.
.	.	.	16ee
.	.	24g#	.
=60	=60	=60	=60
4c#	4a	4a	8.ee
.	.	.	16cc#
4e	24r	2r	4a
.	24c#	.	.
.	24B	.	.
.	24A	.	.
.	24G#	.	.
.	24F#	.	.
4a	24E	.	4r
.	24D	.	.
.	24C#	.	.
.	24E	.	.
.	24A	.	.
.	24c#	.	.
=61	=61	=61	=61
4E	8.d	8g#	6..r
.	.	8ee	.
.	16B	.	.
4B	4G#	4.ee	.
.	.	.	24ddd
.	.	.	24bb
.	.	.	24aa
.	.	.	24gg#
.	.	.	24ff#
4d	4r	.	24ee
.	.	.	24dd
.	.	.	24cc#
.	.	16ff#	24b
.	.	.	24a
.	.	16ee	.
.	.	.	24g#
=62	=62	=62	=62
16c	16e	8ee	[3..aa
16A	16c	.	.
16c	16e	16a	.
16A	16c	16cc	.
16c	16e	16a	.
16A	16c	16cc	.
16c	16e	16a	.
16A	16c	16cc	.
16c	16e	16a	.
16A	16c	16cc	.
.	.	.	24aa]
16c	16e	16a	8a
16A	16c	16cc	.
=63	=63	=63	=63
16F	16f	16a	[3..ccc
16A	16c	16cc	.
16F	16f	16a	.
16A	16c	16cc	.
16F	16f	16a	.
16A	16c	16cc	.
16F	16f	16a	.
16A	16c	16cc	.
16F	16f	16a	.
16A	16c	16cc	.
.	.	.	24ccc]
16F	16f	16a	8ff
16A	16c	16cc	.
=64	=64	=64	=64
16D	16f	16b-	2bb-
16D	16f	16b-	.
16D	16f	16b-	.
16D	16f	16b-	.
16D	16f	16b-	.
16D	16f	16b-	.
16D	16f	16b-	.
16D	16f	16b-	.
16D#	16f#	16cc	4aa
16D#	16f#	16cc	.
16D#	16f#	16cc	.
16D#	16f#	16cc	.
=65	=65	=65	=65
16E	2a	4.cc#	4.ee
16A	.	.	.
16c#	.	.	.
16A	.	.	.
4.e	.	.	.
.	.	8cc	8dd#
.	8g#	8b	8dd
8E	8d	8b	8g#
=66	=66	=66	=66
4A	4c#	4a	24a
.	.	.	24cc#
.	.	.	24dd
.	.	.	24ee
.	.	.	24ff#
.	.	.	24gg#
2r	2r	2r	24aa
.	.	.	24gg#
.	.	.	24bb
.	.	.	24aa
.	.	.	24ccc#
.	.	.	24bb
.	.	.	24ddd
.	.	.	24ccc#
.	.	.	24bb
.	.	.	24aa
.	.	.	24gg#
.	.	.	24ff#
=67	=67	=67	=67
24EE	2a	4.cc#	4.ee
24AA	.	.	.
24C#	.	.	.
24E	.	.	.
24F#	.	.	.
24G#	.	.	.
24A	.	.	.
24E	.	.	.
24A	.	.	.
24c	.	8cc	8dd#
24B	.	.	.
24A	.	.	.
8e	8g#	8b	8dd
8E	8d	8b	8g#
=68	=68	=68	=68
4AA	4c#	4a	24a
.	.	.	24cc#
.	.	.	24dd
.	.	.	24ee
.	.	.	24ff#
.	.	.	24gg#
2r	2r	2r	24aa
.	.	.	24gg#
.	.	.	24bb
.	.	.	24aa
.	.	.	24ccc#
.	.	.	24bb
.	.	.	24ddd
.	.	.	24ccc#
.	.	.	24bb
.	.	.	24aa
.	.	.	24gg#
.	.	.	24ff#
=69	=69	=69	=69
24EE	2a	4.cc#	4.ee
24E	.	.	.
24F	.	.	.
24F#	.	.	.
24G	.	.	.
24G#	.	.	.
24A	.	.	.
24E	.	.	.
24A	.	.	.
24c	.	8cc	8dd#
24B	.	.	.
24A	.	.	.
8e	8g#	8b	8dd
8E	8d	8b	8g#
=70	=70	=70	=70
4F#	8r	4a	24a
.	.	.	24dd#
.	.	.	24ff#
.	8d#	.	24aa
.	.	.	24ff#
.	.	.	24dd#
4.G#	8r	4.b 4.e	24ee
.	.	.	24ff#
.	.	.	24gg#
.	8d	.	24aa
.	.	.	24bb
.	.	.	24ccc#
.	4r	.	8ddd
8r	.	8r	8r
=71	=71	=71	=71
[2.AA	2.e 2.c#	4e	6..r
.	.	4a	.
.	.	.	24eee
.	.	.	24ddd
.	.	.	24ccc#
.	.	.	24bb
.	.	.	24aa
.	.	4cc#	24gg#
.	.	.	24aa
.	.	.	24ee
.	.	.	24gg#
.	.	.	24aa
.	.	.	24ee
=72	=72	=72	=72
2.AA_	2.f# 2.d	4f#	6..r
.	.	4b	.
.	.	.	24fff#
.	.	.	24eee
.	.	.	24ddd
.	.	.	24ccc#
.	.	.	24bb
.	.	4dd	24aa#
.	.	.	24bb
.	.	.	24ff#
.	.	.	24aa#
.	.	.	24bb
.	.	.	24ff#
=73	=73	=73	=73
2.AA_	2.g# 2.B	8g#	6..r
.	.	8ee	.
.	.	4.ee	.
.	.	.	24ddd
.	.	.	24ccc#
.	.	.	24bb
.	.	.	24aa
.	.	.	24gg#
.	.	.	24ff#
.	.	.	24ee
.	.	.	24dd
.	.	16ff#	24cc#
.	.	.	24dd
.	.	16dd	.
.	.	.	24b
=74	=74	=74	=74
4AA]	4c# 4a	8cc#	24a
.	.	.	24ee
.	.	.	24dd
.	.	8ee	24cc#
.	.	.	24b
.	.	.	24a
4r	4r	4.ee	24g#
.	.	.	24f#
.	.	.	24e
.	.	.	24d
.	.	.	24c#
.	.	.	24B
4E	4B	.	24A
.	.	.	24G#
.	.	.	24A
.	.	8g#	24B
.	.	.	24c#
.	.	.	24d
=75	=75	=75	=75
4AA	24e	24a	8c#
.	24cc#	24ee	.
.	24b	24dd	.
.	24a	24cc#	8ee
.	24g#	24b	.
.	24f#	24a	.
4r	24e	24g#	4.ee
.	24d	24f#	.
.	24c#	24e	.
.	24B	24d	.
.	24A	24c#	.
.	24c#	24e	.
4E	24B	24d	.
.	24G#	24B	.
.	24A	24c#	.
.	24B	24d	8g#
.	24c#	24e	.
.	24B	24d	.
=76	=76	=76	=76
24r	8A	8c#	8a
24A	.	.	.
24G#	.	.	.
24F#	8r	8r	8r
24E	.	.	.
24D	.	.	.
24C#	8e	8c#	8a
24F#	.	.	.
24E	.	.	.
24D	8r	8r	8r
24C#	.	.	.
24BB	.	.	.
24AA	8e	8c#	8a
24EE	.	.	.
24GG#	.	.	.
24AA	8r	8r	8r
24EE	.	.	.
24GG#	.	.	.
=77	=77	=77	=77
8AA	8e	8c#	8a
8r	8r	8r	8r
8A 8AA 8E	8e 8A	8cc# 8e 8A	8cc# 8aa 8e
4.r	4.r	4.r	4.r
==	==	==	==
*-	*-	*-	*-
!!!RWG1: This file contains only pitch and duration data.
!!!RWG2: Transposing instruments are not transposed.
!!!RWG3: Spines may have incompatible meters.
!!!RWG4: Durations of rests and tied notes may be interpreted.
!!!RWG: Key is interpreted using the Humdrum key tool.
!!!GTL: 6 Quartetti ("Apponyi")
!!!AFT: stage1
!!!END: 1997/04/15
!!!KEY: 85844839
!!!EMD: Converted from MuseData to Humdrum Dec 16, 2000, by Andreas Kornstaedt using muse2kern.
!!!EMD: Manual editing by Craig Sapp, Nov 2001
